X: 2
T: Sa\vsino Kolo
O: Serbia
R: kolo
Z: John Chambers <jc@trillian.mit.edu>
M: 2/4
L: 1/16
K: D_B^f^c
D \
|: "Gm"[G4D4] [A2F2][B2G2] | [d8B8] \
| [cA][dB][e2c2] [d2B2][c2A2] | [d8B8] \
| [cA][dB][e2c2] [d2B2][c2A2] | "A7"[c2A2][B2G2] [A2F2][G2E2] \
|1 "D"[A8D8] | {c}[d4F4] [d4F4] \
:|2 "D"[A4F4] [A2F2][G2D2] | [A4F4] z4 :|
K: D
|: "D"[d4A4] [e2c2][f2d2] | "A7"[g8e8] \
| "D"[fd][ge][a2f2] [f2d2][d2A2] | "A7"[e8c8] \
| "D"[fd][ge][a2f2] [f2d2][d2A2] | "E7"[g2e2][f2d2] [e2c2][d2B2] \
|1 "A"[e8A8] | {^g}[a4c4] [a4c4] \
:|2 "A"[e4c4] [e2c2][d2A2]  | [e4c4A4] [e4c4A4] ||
|: "D"[fd][ge][a2f2] "-"[f2d2][d2A2] | "A7"[g2e2][f2d2] "/"[e2c2][d2A2] \
|  "D"[fd][ge][a2f2] "-"[f2d2][d2A2] | "A7"[g2e2][f2d2] "/"[e2c2][d2A2] \
|  "D"[fd][ge][a2f2] "-"[f2d2][d2A2] | "E7"[g2e2][f2d2] [e2c2][d2B2] \
|1 "A"[e8A8] | {^g}[a4c4] [a4c4] \
:|2 "A"[e4c4] [e2c2][d2A2]  | [e4c4A4] [e4c4A4] |]
